src/shared/routelogo/images/d.svg

<?xml version="1.0" standalone="no"?>
<!DOCTYPE svg PUBLIC "-//W3C//DTD SVG 1.1//EN" "http://www.w3.org/Graphics/SVG/1.1/DTD/svg11.dtd">
<svg width="100%" height="100%" viewBox="0 0 90 90" version="1.1" xmlns="http://www.w3.org/2000/svg" xmlns:xlink="http://www.w3.org/1999/xlink" xml:space="preserve" style="fill-rule:evenodd;clip-rule:evenodd;stroke-linejoin:round;stroke-miterlimit:1.41421;">
    <g id="D">
        <circle cx="45" cy="45" r="45" style="fill:rgb(255,98,25);"/>
        <path d="M35.7389,29.3424L35.7389,60.6576L44.9837,60.6576C49.7146,60.6576 53.0132,58.3247 54.8796,53.6589C55.8995,51.0981 56.4095,48.049 56.4095,44.5117C56.4095,39.6289 55.6445,35.88 54.1146,33.265C52.5846,30.65 49.541,29.3424 44.9837,29.3424L35.7389,29.3424ZM54.0983,22.0508C57.462,23.1576 60.1855,25.1866 62.2689,28.138C63.9399,30.5252 65.0792,33.1076 65.6868,35.8854C66.2945,38.6632 66.5983,41.3108 66.5983,43.8281C66.5983,50.2083 65.3179,55.612 62.7572,60.0391C59.2849,66.0069 53.9247,68.9909 46.6764,68.9909L26.0059,68.9909L26.0059,21.0091L46.6764,21.0091C49.6495,21.0525 52.1235,21.3997 54.0983,22.0508Z" style="fill:white;fill-rule:nonzero;"/>
    </g>
</svg>

<svg viewBox="0 0 90 90" xmlns="http://www.w3.org/2000/svg" xml:space="preserve" style="fill-rule:evenodd;clip-rule:evenodd;stroke-linejoin:round;stroke-miterlimit:1.41421"><circle cx="45" cy="45" r="45" style="fill:#ff6219"/><path d="M35.739 29.342v31.316h9.245c4.73 0 8.03-2.333 9.896-7 1.02-2.56 1.53-5.609 1.53-9.146 0-4.883-.765-8.632-2.295-11.247-1.53-2.615-4.574-3.923-9.131-3.923h-9.245Zm18.36-7.291c3.363 1.107 6.087 3.136 8.17 6.087 1.67 2.387 2.81 4.97 3.418 7.747.608 2.778.911 5.426.911 7.943 0 6.38-1.28 11.784-3.84 16.211-3.473 5.968-8.833 8.952-16.082 8.952h-20.67V21.009h20.67c2.974.043 5.447.39 7.422 1.042Z" style="fill:#fff;fill-rule:nonzero"/></svg>
